X: 3
T: The Easy Club
R: reel
M: 4/4
L: 1/8
K: Amaj
|:AEAc BEGB|ccAc eAce|faag> aaea|caec dcBc|AEAc BEGB|ccAc eAca|faga efec|1dBGB A3 B:|2dBGB A2 ce|:faad> aaga|eaac> aaga|faad> aaga|ceec dBGB|AEcA Bc (3ddd|cAec defg|agae faec|dBGB A4:


Tune 955	Setting 14154

